!!!!SEGMENT: pl-kk--kk-i-286--002_anonim--simile-est-regnum.krn
!!!cenid: 17xx:2101
!!!COM: Anonim
!!!COM-rismid: pe30004985
!!!CDT:
!!!CNT:
!!!OTL: Simile est regnum
!!!PDT:
!!!AGN: Sacred
!!!SMS-siglum: PL-Kk
!!!SMS-shelfmark: Kk.I.286
!!!SMS-shelfwork: 002 W
!!!SMS-variant:
!!!SMS-altvar:
!!!NIFC-rismid: 1001147628
!!!URL-scan: http://repozytorium.nifc.pl/skany/pl-kk-nut--i-286
!!!ONB-nifc: UWAGA: utwory w zbiorze: 1. Sancte paule apostole, 2. Simile est regnum
!!!key:
**kern	**text	**kern	**text	**kern	**text	**text	**kern	**text	**kern	**text
*part5	*part5	*part4	*part4	*part3	*part3	*part3	*part2	*part2	*part1	*part1
*staff5	*staff5	*staff4	*staff4	*staff3	*staff3	*staff3	*staff2	*staff2	*staff1	*staff1
*Iempty	*	*Itenor	*	*Itenor	*	*	*Ialto	*	*Ivox	*
*I"[Basso]	*	*I"[Tenore II]	*	*I"[Tenore I]	*	*	*I"[Alto]	*	*I"[Canto]	*
*I'[B]	*	*I'[T II]	*	*I'[T I]	*	*	*I'[A]	*	*I'[S]	*
*clefF3	*	*clefC3	*	*clefC3	*	*	*clefC2	*	*clefG2	*
*k[b-]	*	*k[b-]	*	*k[b-]	*	*	*k[b-]	*	*k[b-]	*
*g:	*	*g:	*	*g:	*	*	*g:	*	*g:	*
*M2/1	*	*M2/1	*	*M2/1	*	*	*M2/1	*	*M2/1	*
=1	=1	=1	=1	=1	=1	=1	=1	=1	=1	=1
*	*	*	*	*	*	*	*met(c|)	*	*	*
!LO:TX:a:t=De V. et M. e S. Margaritha	!	!	!	!LO:TX:a:t=De S. Margaritha. V. et. Martyre.	!	!	!LO:TX:t=P:problem=znaki [B- b-]	!	!	!
!LO:TX:a:t=11	!	!LO:TX:a:t=De V. et M. et De S. Margarita.	!	!LO:TX:a:t=16	!	!	!LO:TX:a:t=De V. et M et De ſ Margarita	!	!LO:TX:a:t=De V. et M. et De ſ Margarita	!
00rE	.	0rA	.	00r	.	.	2.g\	Si-0	00r	.
!	!	!	!	!	!	!	!LO:N:vis=2	!	!	!
.	.	.	.	.	.	.	4g\	-mi-	.	.
.	.	.	.	.	.	.	2g\	-le	.	.
!	!	!	!	!	!	!	!LO:TX:t=P:problem=kreska pseudotaktowa	!	!	!
.	.	.	.	.	.	.	2g\	eſt	.	.
=2-	=2-	=2-	=2-	=2-	=2-	=2-	=2-	=2-	=2-	=2-
!	!	!LO:TX:t=P:problem=kreska pseudotaktowa	!	!	!	!	!	!	!	!
.	.	1rA	.	.	.	.	1.b-\	re-	.	.
.	.	2.d\	Si-	.	.	.	.	.	.	.
!	!	!	!	!	!	!	!LO:TX:t=P:problem=kreska pseudotaktowa	!	!	!
.	.	.	.	.	.	.	2a\	.	.	.
.	.	4d\	-mi-	.	.	.	.	.	.	.
=3-	=3-	=3-	=3-	=3-	=3-	=3-	=3-	=3-	=3-	=3-
00rE	.	2d\	-le	00r	.	.	2a\	-gn(um)	00r	.
!	!	!LO:TX:t=P:problem=kreska pseudotaktowa	!	!	!	!	!	!	!	!
.	.	2d\	e(s)t	.	.	.	2.b-\	c(ae)-	.	.
.	.	1.e-X\	re-	.	.	.	.	.	.	.
.	.	.	.	.	.	.	4a\	.	.	.
.	.	.	.	.	.	.	4g\	-lo-	.	.
!	!	!	!	!	!	!	!LO:TX:t=P:problem=kreska pseudotaktowa	!	!	!
.	.	.	.	.	.	.	4f\	.	.	.
=4-	=4-	=4-	=4-	=4-	=4-	=4-	=4-	=4-	=4-	=4-
.	.	.	.	.	.	.	2g\	.	.	.
!	!	!LO:TX:t=P:problem=kreska pseudotaktowa	!	!	!	!	!	!	!	!
.	.	2d\	.	.	.	.	2b-\	-[[lo]]r(um)	.	.
!	!	!	!	!	!	!	!LO:TX:t=P:problem=kreska pseudotaktowa	!	!	!
.	.	2d\	-gn(um)	.	.	.	1f\	.	.	.
.	.	2.B-/	c(ae)-	.	.	.	.	.	.	.
=5-	=5-	=5-	=5-	=5-	=5-	=5-	=5-	=5-	=5-	=5-
0r	.	.	.	00rf	.	.	2.g\	ho-	2.dd\	Si-
.	.	4A/	.	.	.	.	.	.	.	.
.	.	4G/	.	.	.	.	.	.	.	.
!	!	!LO:TX:t=P:problem=kreska pseudotaktowa	!	!	!	!	!	!	!LO:TX:t=P:problem=kreska pseudotaktowa	!
!	!	!	!	!	!	!	!	!	!LO:N:vis=2	!
.	.	4F/	.	.	.	.	4a\	-mi-	4dd\	-mi-
.	.	2G/	.	.	.	.	2b-\	-ni	2dd\	-le
!	!	!	!	!	!	!	!LO:TX:t=P:problem=kreska pseudotaktowa	!	!	!
*	*	*	*	*	*	*	*	*ij	*	*
.	.	2B-/	-lo-	.	.	.	2g\	Si-	2dd\	eſt
=6-	=6-	=6-	=6-	=6-	=6-	=6-	=6-	=6-	=6-	=6-
!LO:TX:t=P:problem=kreska pseudotaktowa	!	!	!	!	!	!	!	!	!	!
1rc	.	1c\	-r(um)	.	.	.	2g\	-mi-	1.ee-X\	Re-
.	.	.	.	.	.	.	2g\	-le	.	.
!	!	!	!	!	!	!	!LO:TX:t=P:problem=kreska pseudotaktowa	!	!	!
2.G\	Si-	2.g\	ho-	.	.	.	1b-\	eſt	.	.
!	!	!	!	!	!	!	!	!	!LO:TX:t=P:problem=kreska pseudotaktowa	!
.	.	.	.	.	.	.	.	.	2dd\	.
4G\	-mi-	4g\	-mi-	.	.	.	.	.	.	.
=7-	=7-	=7-	=7-	=7-	=7-	=7-	=7-	=7-	=7-	=7-
!	!	!LO:TX:t=P:problem=kreska pseudotaktowa	!	!	!	!	!	!	!	!
2G\	-le	0d\	-ni	00rf	.	.	2b-\	re-	2dd\	-gn(um)
!LO:TX:t=P:problem=kreska pseudotaktowa	!	!	!	!	!	!	!LO:TX:t=P:problem=kreska pseudotaktowa	!	!	!
2G\	eſt	.	.	.	.	.	2g\	-gn(um)	2.b-/	c(ae)-
1.B-\	re-	.	.	.	.	.	1f\	c(ae)-	.	.
.	.	.	.	.	.	.	.	.	4cc\	.
.	.	.	.	.	.	.	.	.	4dd\	-lo-
!	!	!	!	!	!	!	!	!	!LO:TX:t=P:problem=kreska pseudotaktowa	!
.	.	.	.	.	.	.	.	.	4eeny\	.
=8-	=8-	=8-	=8-	=8-	=8-	=8-	=8-	=8-	=8-	=8-
.	.	0r	.	.	.	.	2d/	-lo-	1ff\	-[[lo]]-
!LO:TX:t=P:problem=kreska pseudotaktowa	!	!	!	!	!	!	!LO:TX:t=P:problem=kreska pseudotaktowa	!	!	!
2A\	.	.	.	.	.	.	2c/	-r(um)	.	.
2A\	-gn(um)	.	.	.	.	.	2.f\	ho-	2cc\	-r(um)
!	!	!	!	!	!	!	!	!	!LO:TX:t=P::problem=kreska pseudotaktowa&colon;między nutą a kropką	!
2.B-\	c(ae)-	.	.	.	.	.	.	.	2.dd\	ho-
.	.	.	.	.	.	.	4f\	-mi-	.	.
=9-	=9-	=9-	=9-	=9-	=9-	=9-	=9-	=9-	=9-	=9-
!	!	!	!	!	!	!	!LO:TX:t=P:problem=kreska pseudotaktowa	!	!	!
.	.	1rA	.	2.d\	Si-	.	1g\	-ni	.	.
*	*	*	*	*	*	*	*	*Xij	*	*
4A\	.	.	.	.	.	.	.	.	4cc\	.
4G\	.	.	.	.	.	.	.	.	4b-\	.
!LO:TX:t=P:problem=kreska pseudotaktowa	!	!	!	!	!	!	!	!	!	!
4F/	.	.	.	4d\	-mi-	.	.	.	4a\	.
!	!	!	!	!	!	!	!LO:LB:g=original	!	!	!
!	!	!	!	!	!	!	!LO:TX:t=P:problem=kreska pseudotaktowa	!	!	!
1G\	-lo-	2r	.	2d\	-le	.	00r	.	2.b-/	.
!	!	!LO:TX:t=P:problem=kreska pseudotaktowa	!	!LO:TX:t=P:problem=kreska pseudotaktowa	!	!	!	!	!	!
.	.	2G/	Si-	2d\	eſt	.	.	.	.	.
.	.	.	.	.	.	.	.	.	4b-/	-mi-
=10-	=10-	=10-	=10-	=10-	=10-	=10-	=10-	=10-	=10-	=10-
!LO:TX:t=P:problem=kreska pseudotaktowa	!	!	!	!	!	!	!	!	!LO:TX:t=P:problem=kreska pseudotaktowa	!
1C/	-r(um)	2G/	-mi-	1.e-X\	re-	.	.	.	1g/	-ni
!	!	!LO:TX:t=P:problem=kreska pseudotaktowa	!	!	!	!	!	!	!	!
.	.	2G/	-le	.	.	.	.	.	.	.
2.G\	ho-	2A/	(est)	.	.	.	.	.	0r	.
!	!	!	!	!LO:TX:t=P:problem=kreska pseudotaktowa	!	!	!	!	!	!
.	.	1B-/	re-	2d\	.	.	.	.	.	.
4G\	-mi-	.	.	.	.	.	.	.	.	.
=11-	=11-	=11-	=11-	=11-	=11-	=11-	=11-	=11-	=11-	=11-
!LO:TX:t=P:problem=kreska pseudotaktowa	!	!	!	!	!	!	!	!	!	!
0D/	-ni	.	.	2d\	-gn(um)	.	.	.	.	.
!	!	!LO:TX:t=P:problem=kreska pseudotaktowa	!	!	!	!	!	!	!	!
.	.	2A/	.	2.f\	c(ae)-	.	.	.	.	.
.	.	2A/	-gn(um)	.	.	.	2.d/	ſi-	1r	.
.	.	.	.	4eny\	.	.	.	.	.	.
!	!	!LO:TX:t=P::problem=kreska pseudotaktowa&colon;między nutą a kropką	!	!	!	!	!	!	!	!
.	.	2.B-/	c(ae)-	4d\	-lo-	.	.	.	.	.
!	!	!	!	!LO:TX:t=P:problem=kreska pseudotaktowa	!	!	!	!	!	!
.	.	.	.	4c\	.	.	4d/	-mi-	.	.
=12-	=12-	=12-	=12-	=12-	=12-	=12-	=12-	=12-	=12-	=12-
!	!	!	!	!LO:TX:t=P:problem=niepotrzebna sylaba "lo"	!	!	!	!	!	!
0r	.	.	.	2.B-/	-lo-	.	2d/	-le	2.g/	ſi-
.	.	4A/	.	.	.	.	.	.	.	.
!	!	!	!	!	!	!	!LO:TX:t=P:problem=kreska pseudotaktowa	!	!	!
.	.	4G/	.	.	.	.	2d/	eſt	.	.
!	!	!LO:TX:t=P:problem=kreska pseudotaktowa	!	!	!	!	!	!	!	!
.	.	4F/	.	4A/	.	.	.	.	4g/	-mi-
.	.	2G/	-lo-	2B-/	.	.	1.e-X\	.	2g/	-le
!	!	!LO:TX:t=P:problem=niepotrzebna sylaba "lo"	!	!	!	!	!	!	!	!
!	!	!LO:TX:t=P:problem=kreska pseudotaktowa	!	!LO:TX:t=P:problem=kreska pseudotaktowa	!	!	!	!	!LO:TX:t=P:problem=kreska pseudotaktowa	!
!	!	!LO:LB:g=original	!	!	!	!	!	!	!	!
.	.	2g\	-lo-	2c/	-r(um)	.	.	.	2g/	eſt
=13-	=13-	=13-	=13-	=13-	=13-	=13-	=13-	=13-	=13-	=13-
1rF	.	2.g\	-r(um)	2.G/	ho-	.	.	.	1.b-\	re-
!	!	!	!	!	!	!	!LO:TX:t=P:problem=kreska pseudotaktowa	!	!	!
.	.	.	.	.	.	.	2d/	re-	.	.
.	.	8f\L	.	4G/	-mi-	.	.	.	.	.
!	!	!LO:TX:t=P:problem=kreska pseudotaktowa	!	!	!	!	!	!	!	!
.	.	8eny\J	.	.	.	.	.	.	.	.
!	!	!	!	!LO:TX:t=P:problem=kreska pseudotaktowa	!	!	!	!	!	!
2rD	.	4f\	ho-	1d\	-ni	.	2d/	-gn(um)	.	.
.	.	4e\	.	.	.	.	.	.	.	.
!LO:TX:t=P:problem=kreska pseudotaktowa	!	!	!	!	!	!	!	!	!LO:TX:t=P:problem=kreska pseudotaktowa	!
*	*ij	*	*	*	*	*	*	*	*	*
2D/	Si-	4d\	.	.	.	.	2.f\	c(ae)-	2a/	-gn(um)
!	!	!LO:TX:t=P:problem=kreska pseudotaktowa	!	!	!	!	!	!	!	!
.	.	4c\	.	.	.	.	.	.	.	.
=14-	=14-	=14-	=14-	=14-	=14-	=14-	=14-	=14-	=14-	=14-
*	*	*	*	*	*	*	*	*	*custos:b-	*
2D/	-mi-	4d\	.	2rF	.	.	.	.	2a/	c(ae)-
.	.	4e\	.	.	.	.	4eny/	.	.	.
!	!	!	!	!	!	!	!	!	!LO:TX:t=P::problem=kreska pseudotaktowa&colon;między nutą a kropką	!
!	!	!	!	!	!	!	!	!	!LO:LB:g=original	!
2D/	-le	2f\	-mi-	2G/	ſi-	.	4d/	.	2.b-/	c(ae)-
!	!	!	!	!	!	!	!LO:TX:t=P:problem=kreska pseudotaktowa	!	!	!
.	.	.	.	.	.	.	4c/	.	.	.
2E-X/	eſt	1g\	-ni	2G/	-mi-	.	2.B-/	-lo-	.	.
.	.	.	.	.	.	.	.	.	4a/	.
!	!	!	!	!LO:TX:t=P:problem=kreska pseudotaktowa	!	!	!	!	!	!
1E-/	re-	.	.	2G/	-le	.	.	.	4g/	.
.	.	.	.	.	.	.	4A/	.	4f/	.
=15-	=15-	=15-	=15-	=15-	=15-	=15-	=15-	=15-	=15-	=15-
.	.	00r	.	2B-/	eſt	.	4B-/	.	2g/	.
.	.	.	.	.	.	.	4c/	.	.	.
!LO:TX:t=P:problem=kreska pseudotaktowa	!	!	!	!	!	!	!	!	!LO:TX:t=P::problem=kreska pseudotaktowa&colon;między nutą a kropką	!
2D/	.	.	.	1B-/	re-	.	1d/	.	2.f/	-lo-
2D/	-gn(um)	.	.	.	.	.	.	.	.	.
.	.	.	.	.	.	.	.	.	4g/	.
!	!	!	!	!LO:TX:t=P:problem=kreska pseudotaktowa	!	!	!	!	!	!
2.F/	c(ae)-	.	.	2A/	.	.	1c/	-r(um)	4a/	.
.	.	.	.	.	.	.	.	.	4b-/	.
=16-	=16-	=16-	=16-	=16-	=16-	=16-	=16-	=16-	=16-	=16-
.	.	.	.	1A/	-gn(um)	.	.	.	2cc\	-rum
4Eny/	.	.	.	.	.	.	.	.	.	.
4D/	.	.	.	.	.	.	2.f\	ſi-	1dd\	.
!LO:TX:t=P:problem=kreska pseudotaktowa	!	!	!	!	!	!	!	!	!	!
4C/	.	.	.	.	.	.	.	.	.	.
2BB-/	-lo-	.	.	2G/	c(ae)-	.	.	.	.	.
.	.	.	.	.	.	.	8e/L	-mi-	.	.
.	.	.	.	.	.	.	8d/J	.	.	.
*	*	*	*	*custos:B-	*	*	*	*	*	*
!	!	!	!	!LO:TX:t=P:problem=kreska pseudotaktowa	!	!	!LO:TX:t=P:problem=kreska pseudotaktowa	!	!	!
2C/	-r(um)	.	.	2G/	-lo-	.	2e-X/	-le	1g/	ho-
=17-	=17-	=17-	=17-	=17-	=17-	=17-	=17-	=17-	=17-	=17-
!LO:LB:g=original	!	!	!	!LO:LB:g=original	!	!	!	!	!	!
2.D/	ho-	2r	.	4B-/	-rum)	.	2.d/	ho-	.	.
.	.	.	.	8A/L	.	.	.	.	.	.
.	.	.	.	8G/J	.	.	.	.	.	.
!	!	!LO:TX:t=P:problem=kreska pseudotaktowa	!	!LO:TX:t=P:problem=kreska pseudotaktowa	!	!	!	!	!LO:TX:t=P:problem=kreska pseudotaktowa	!
.	.	2d\	ſi-	2A/	ho-	.	.	.	2f/	-mi-
!LO:TX:t=P:problem=kreska pseudotaktowa	!	!	!	!	!	!	!	!	!	!
4D/	-mi-	.	.	.	.	.	4c/	.	.	.
!	!	!	!	!	!	!	!	!	!LO:TX:t=P:problem=kreska pseudotaktowa	!
2GG/	-ni	2d\	-mi-	2G/	-mi-	.	4B-/	.	0g/	-ni
*	*Xij	*	*	*	*	*	*	*	*	*
.	.	.	.	.	.	.	4A/	.	.	.
!	!	!	!	!LO:TX:t=P:problem=kreska pseudotaktowa	!	!	!	!	!	!
2G\	ſi-	2d\	-le	2G/	-ni	.	4B-/	.	.	.
.	.	.	.	.	.	.	4c/	-mi-	.	.
=18-	=18-	=18-	=18-	=18-	=18-	=18-	=18-	=18-	=18-	=18-
!	!	!LO:N:acc=#	!	!	!	!	!LO:TX:t=P:problem=kreska pseudotaktowa	!	!	!
2G\	-mi-	2.Bn/	ho-	2r	.	.	1d/	-ni	.	.
!LO:TX:t=P:problem=kreska pseudotaktowa	!	!	!	!	!	!	!	!	!	!
2G\	-le	.	.	2g\	Si-	[[ne-	.	.	.	.
!	!	!LO:TX:t=P:problem=kreska pseudotaktowa	!	!	!	!	!	!	!	!
.	.	4B/	-mi-	.	.	.	.	.	.	.
2.E/	ho-	2c/	-ni	2g\	-mi-	-go-	1r	.	0r	.
!	!	!	!	!LO:TX:t=P:problem=kreska pseudotaktowa	!	!	!	!	!	!
.	.	2c/	ne-	2g\	-le	-ti-	.	.	.	.
4E/	-mi-	.	.	.	.	.	.	.	.	.
=19-	=19-	=19-	=19-	=19-	=19-	=19-	=19-	=19-	=19-	=19-
2F/	-ni	2c/	-go-	1f\	ho-	-a-	2.a\	ſi-	.	.
!LO:TX:t=P:problem=kreska pseudotaktowa	!	!	!	!	!	!	!	!	!	!
2F/	ne-	2c/	-ti-	.	.	.	.	.	.	.
.	.	.	.	.	.	.	4a\	-mi-	.	.
2F/	-go-	(2.f\	-a-	2c/	-mi-	-to-	2a\	-le	2r	.
*	*	*	*	*	*	*	*	*	*	*ij
2D/	-ti-	.	.	1d\	-ni	-ri]]	2a\	ho-	2dd\	ſi-
!	!	!LO:TX:t=P:problem=kreska pseudotaktowa	!	!	!	!	!	!	!	!
.	.	4g\)	.	.	.	.	.	.	.	.
=20-	=20-	=20-	=20-	=20-	=20-	=20-	=20-	=20-	=20-	=20-
2D/	-a-	2a\	-to-	.	.	.	1f#X\	.	2dd\	-mi-
!	!	!LO:TX:t=P:problem=kreska pseudotaktowa	!	!LO:TX:t=P:problem=kreska pseudotaktowa	!	!	!	!	!LO:TX:t=P:problem=kreska pseudotaktowa	!
2D/	-to-	2a\	-ri	2d\	ne-	.	.	.	2dd\	-le
!	!	!	!	!	!	!	!	!	!LO:N:acc=#	!
!LO:TX:t=P:problem=kreska pseudotaktowa	!	!	!	!	!	!	!	!	!LO:TX:t=P:problem=# above	!
1G\	-ri	2d\	ne-	2d\	-go-	.	2g\	-mi-	1bn\	eſt
.	.	2d\	-go-	2G/	-ti-	.	2g\	-ni	.	.
=21-	=21-	=21-	=21-	=21-	=21-	=21-	=21-	=21-	=21-	=21-
!	!	!	!	!	!	!	!LO:LB:g=original	!	!	!
0r	.	2e\	-ti-	2.c/	-a-	.	4g\	ne-	2cc\	re-
.	.	.	.	.	.	.	4fny\	.	.	.
!	!	!LO:TX:t=P:problem=kreska pseudotaktowa	!	!	!	!	!	!	!	!
.	.	2g\	-a-	.	.	.	1eny\	-go-	1cc\	-gn(um)
!	!	!	!	!LO:TX:t=P:problem=kreska pseudotaktowa	!	!	!	!	!	!
.	.	.	.	4B-/	.	.	.	.	.	.
.	.	1c\	-to-	1A/	-to-	.	.	.	.	.
!	!	!	!	!	!	!	!	!	!LO:TX:t=P:problem=kreska pseudotaktowa	!
.	.	.	.	.	.	.	4e\	.	2a/	c(ae)-
!	!	!	!	!	!	!	!LO:TX:t=P:problem=kreska pseudotaktowa	!	!	!
.	.	.	.	.	.	.	4f\	.	.	.
=22-	=22-	=22-	=22-	=22-	=22-	=22-	=22-	=22-	=22-	=22-
1r	.	1d\	-ri	1G/	-ri	.	2g\	-ti-	1b-y\	-lo-
.	.	.	.	.	.	.	1d/	-a-	.	.
!	!	!	!	!	!	!	!	!	!LO:TX:t=P:problem=kreska pseudotaktowa	!
1A\	qu(ae)-	1e\	qu(ae)-	0r	.	.	.	.	1a/	-rum
*	*	*	*	*	*	*	*	*	*	*Xij
.	.	.	.	.	.	.	4c#X/	.	.	.
!	!	!	!	!	!	!	!LO:TX:t=P:problem=kreska pseudotaktowa	!	!	!
.	.	.	.	.	.	.	4B-/	.	.	.
=23-	=23-	=23-	=23-	=23-	=23-	=23-	=23-	=23-	=23-	=23-
2A\	-ren-	2e\	-ren-	.	.	.	2c#X/	.	2r	.
!LO:TX:t=P:problem=kreska pseudotaktowa	!	!LO:TX:t=P:problem=kreska pseudotaktowa	!	!	!	!	!	!	!	!
2A\	-ti	2e\	-ti	.	.	.	2c#/	-to-	2a/	ho-
!	!	!LO:LB:g=original	!	!	!	!	!LO:TX:t=P:problem=kreska pseudotaktowa	!	!	!
1F#X\	bo-	1A/	bo-	2r	.	.	1d/	-ri	2a/	-mi-
!	!	!	!	!LO:TX:t=P:problem=kreska pseudotaktowa	!	!	!	!	!LO:TX:t=P:problem=kreska pseudotaktowa	!
.	.	.	.	2d\	qu(ae)-	.	.	.	2a/	-ni
=24-	=24-	=24-	=24-	=24-	=24-	=24-	=24-	=24-	=24-	=24-
!LO:TX:t=P:problem=kreska pseudotaktowa	!	!	!	!	!	!	!	!	!	!
0G\	-nas	2.B-y/	-nas	2d\	-ren-	.	2rc	.	1dd\	ne-
.	.	.	.	2d\	-ti	.	2g\	qu(ae)-	.	.
.	.	4c/	.	.	.	.	.	.	.	.
!	!	!LO:TX:t=P:problem=kreska pseudotaktowa	!	!LO:N:acc=#	!	!	!	!	!	!
.	.	1d\	.	1Bn/	bo-	.	2g\	-ren-	1dd\	-go-
!	!	!	!	!	!	!	!LO:TX:t=P:problem=kreska pseudotaktowa	!	!	!
.	.	.	.	.	.	.	2g\	-ti	.	.
=25-	=25-	=25-	=25-	=25-	=25-	=25-	=25-	=25-	=25-	=25-
0rF	.	1r	.	2c/	-nas	.	1.e\	bo-	1g/	-ti-
.	.	.	.	1c\	Mar-	.	.	.	.	.
!	!	!	!	!	!	!	!	!	!LO:LB:g=original	!
.	.	2r	.	.	.	.	.	.	2g/	-a-
!	!	!	!	!LO:TX:t=P:problem=kreska pseudotaktowa	!	!	!LO:TX:t=P:problem=kreska pseudotaktowa	!	!	!
.	.	2g\	qu(ae)-	2B-y/	-ga-	.	2d/	-nas	1dd\	-to-
=26-	=26-	=26-	=26-	=26-	=26-	=26-	=26-	=26-	=26-	=26-
*	*ij	*	*	*	*	*	*	*ij	*	*
1rF	.	2f\	-ren-	1A/	-ri-	.	1a\	qu(ae)-	.	.
!	!	!LO:TX:t=P:problem=kreska pseudotaktowa	!	!	!	!	!	!	!	!
.	.	2e\	-ti	.	.	.	.	.	2cc\	.
!	!	!	!	!LO:TX:t=P:problem=kreska pseudotaktowa	!	!	!	!	!LO:TX:t=P:problem=kreska pseudotaktowa	!
1D/	qu(ae)-	2.f\	bo-	0A/	-tas	.	2a\	-ren-	1dd\	-ri
.	.	.	.	.	.	.	2a\	-ti	.	.
.	.	4e\	.	.	.	.	.	.	.	.
=27-	=27-	=27-	=27-	=27-	=27-	=27-	=27-	=27-	=27-	=27-
2D/	-ren-	2d\	-nas	.	.	.	1f#X\	bo-	0r	.
!LO:TX:t=P:problem=kreska pseudotaktowa	!	!LO:TX:t=P:problem=kreska pseudotaktowa	!	!	!	!	!	!	!	!
2D/	-ti	2d\	Mar-	.	.	.	.	.	.	.
!LO:N:acc=#	!	!	!	!	!	!	!	!	!	!
1BBn/	bo-	2d\	-ga-	0r	.	.	2g\	-nas	.	.
!	!	!	!	!	!	!	!LO:TX:t=P:problem=kreska pseudotaktowa	!	!	!
.	.	2d\	-ri-	.	.	.	2g\	qu(ae)-	.	.
=28-	=28-	=28-	=28-	=28-	=28-	=28-	=28-	=28-	=28-	=28-
1C/	-nas	1e-X\	-tas	.	.	.	2g\	-ren-	2rdd	.
*	*Xij	*	*	*	*	*	*	*	*	*
.	.	.	.	.	.	.	2cc\	-ti	2gg\	qu(ae)-
2G\	mar-	2d\	in-	1r	.	.	2b-\	bo-	2gg\	-ren-
!LO:TX:t=P:problem=kreska pseudotaktowa	!	!LO:TX:t=P:problem=kreska pseudotaktowa	!	!	!	!	!LO:TX:t=P:problem=kreska pseudotaktowa	!	!LO:TX:t=P:problem=kreska pseudotaktowa	!
2G\	-ga-	2d\	-ven-	.	.	.	2b-\	-nas	2gg\	-ti
*	*	*	*	*	*	*	*	*Xij	*	*
=29-	=29-	=29-	=29-	=29-	=29-	=29-	=29-	=29-	=29-	=29-
1A\	-ri-	2d\	-ta	2re	.	.	(2.a\	Mar-	1ee\	bo-
!	!	!	!	!LO:TX:t=P:problem=kreska pseudotaktowa	!	!	!	!	!	!
.	.	2c/	u-	2a\	in-	.	.	.	.	.
*	*	*	*	*	*	*	*custos:f	*	*	*
!	!	!	!	!	!	!	!LO:TX:t=P:problem=kreska pseudotaktowa	!	!	!
.	.	.	.	.	.	.	4g\)	.	.	.
!LO:TX:t=P:problem=kreska pseudotaktowa	!	!	!	!	!	!	!LO:LB:g=original	!	!	!
1D/	-tas	2A/	-na	2a\	-ven-	.	2fny\	-ga-	1ff\	-nas
!	!	!LO:TX:t=P:problem=kreska pseudotaktowa	!	!	!	!	!	!	!	!
.	.	2d\	in-	2a\	-ta	.	2d/	-ri-	.	.
=30-	=30-	=30-	=30-	=30-	=30-	=30-	=30-	=30-	=30-	=30-
!	!	!	!	!	!	!	!LO:TX:t=P:problem=kreska pseudotaktowa	!	!LO:TX:t=P:problem=kreska pseudotaktowa	!
*	*	*	*	*	*	*	*	*	*	*ij
!LO:LB:g=original	!	!	!	!	!	!	!	!	!	!
1rF	.	2d\	-ven-	2f#X\	V-	.	1a\	-tas	1dd\	qu(ae)-
!	!	!	!	!LO:TX:t=P:problem=kreska pseudotaktowa	!	!	!	!	!	!
.	.	2d\	-ta	2f#\	-na	.	.	.	.	.
!	!	!LO:TX:t=P:problem=kreska pseudotaktowa	!	!	!	!	!	!	!	!
!	!	!LO:N:acc=#	!	!	!	!	!	!	!	!
*	*	*	*	*	*ij	*	*	*	*	*
1G\	in-	1Bn/	an-	2g\	in-	.	1r	.	2dd\	-ren-
.	.	.	.	2g\	-ven-	.	.	.	2dd\	-ti
=31-	=31-	=31-	=31-	=31-	=31-	=31-	=31-	=31-	=31-	=31-
!	!	!	!	!	!	!	!	!	!LO:TX:t=P:problem=w źródle jest krzyżyk	!
2G\	-ven-	1d\	-te	2g\	-ta	.	1g\	in-	1bn\	bo-
!LO:TX:t=P:problem=kreska pseudotaktowa	!	!	!	!LO:TX:t=P:problem=kreska pseudotaktowa	!	!	!	!	!	!
2G\	-ta	.	.	2d\	V-	.	.	.	.	.
1E/	u-	2c/	U-	4g\	-na	.	2g\	-ven-	2cc\	-nas
*	*	*	*	*	*	*	*	*	*	*Xij
.	.	.	.	4fny\	.	.	.	.	.	.
!	!	!LO:TX:t=P:problem=kreska pseudotaktowa	!	!	!	!	!LO:TX:t=P:problem=kreska pseudotaktowa	!	!	!
.	.	2G/	-na	4e\	.	.	2g\	-ta	1cc\	bo-
!	!	!	!	!LO:TX:t=P:problem=kreska pseudotaktowa	!	!	!	!	!	!
.	.	.	.	4d\	.	.	.	.	.	.
=32-	=32-	=32-	=32-	=32-	=32-	=32-	=32-	=32-	=32-	=32-
2Fny/	-na	2A/	pre-	4c\	.	.	2f\	u-	.	.
.	.	.	.	4B-\	.	.	.	.	.	.
!LO:TX:t=P:problem=kreska pseudotaktowa	!	!	!	!	!	!	!	!	!	!
2D/	in-	2A/	-ti-	1d\	in-	.	2f\	-na	1ff\	-nas
*	*	*	*	*	*	*	*	*ij	*	*
2D/	-ven-	1A/	-o-	.	.	.	2a\	in-	.	.
!LO:TX:t=P:problem=kreska pseudotaktowa	!	!	!	!LO:TX:t=P:problem=kreska pseudotaktowa	!	!	!LO:TX:t=P:problem=kreska pseudotaktowa	!	!LO:TX:t=P::problem=kreska pseudotaktowa&colon;między nutą a kropką	!
2C#X/	-ta	.	.	2e\	-ven-	.	2a\	-ven-	2.ee\	Mar-
=33-	=33-	=33-	=33-	=33-	=33-	=33-	=33-	=33-	=33-	=33-
!	!	!LO:LB:g=original	!	!	!	!	!	!	!	!
!	!	!LO:TX:t=P:problem=kreska pseudotaktowa	!	!	!	!	!	!	!	!
2D/	an-	1A/	-ſa	1f\	-ta	.	2a\	-ta	.	.
.	.	.	.	.	.	.	.	.	4dd\	.
4D/	-te	.	.	.	.	.	1a\	u-	1dd\	-ga-
8Cny/L	.	.	.	.	.	.	.	.	.	.
!LO:TX:t=P:problem=kreska pseudotaktowa	!	!	!	!	!	!	!	!	!	!
8BB-y/J	.	.	.	.	.	.	.	.	.	.
4AA/	v-	2r	.	1e\	V-	.	.	.	.	.
4GG/	.	.	.	.	.	.	.	.	.	.
!LO:TX:t=P:problem=kreska pseudotaktowa	!	!	!	!	!	!	!	!	!LO:TX:t=P:problem=# above	!
2AA/	-na	2.A/	pre-	.	.	.	2a\	-na	2cc#X\	-ri-
*	*	*	*	*	*	*	*	*Xij	*	*
=34-	=34-	=34-	=34-	=34-	=34-	=34-	=34-	=34-	=34-	=34-
!	!	!	!	!LO:TX:t=P:problem=kreska pseudotaktowa	!	!	!	!	!LO:TX:t=P:problem=kreska pseudotaktowa	!
2.D/	pre-	.	.	1d\	-na	.	2.f#X\	pre-	0dd\	-tas
*	*	*	*	*	*Xij	*	*	*	*	*
.	.	4A/	-ti-	.	.	.	.	.	.	.
.	.	1A/	-o-	.	.	.	.	.	.	.
4D/	-ti-	.	.	.	.	.	4f#\	-ti-	.	.
!	!	!	!	!LO:TX:t=P:problem=kreska pseudotaktowa	!	!	!	!	!	!
2D/	-o-	.	.	1r	.	.	2f#X\	-o-	.	.
1G\	-ſa	1B-y/	-ſa	.	.	.	1g\	-sa	.	.
=35-	=35-	=35-	=35-	=35-	=35-	=35-	=35-	=35-	=35-	=35-
.	.	.	.	2.d\	pre-	.	.	.	0rb	.
!LO:TX:t=P:problem=kreska pseudotaktowa	!	!LO:TX:t=P:problem=kreska pseudotaktowa	!	!	!	!	!LO:TX:t=P:problem=kreska pseudotaktowa	!	!	!
2F#X/	Mar-	2A/	Mar-	.	.	.	2a\	Mar-	.	.
.	.	.	.	4d\	-ti-	.	.	.	.	.
2G\	-ga-	2G/	-ga-	2d\	-o-	.	2b-\	-ga-	.	.
2E-X/	-ri-	2B-/	-ri-	1g\	-ſa	.	2g\	-ri-	.	.
=36-	=36-	=36-	=36-	=36-	=36-	=36-	=36-	=36-	=36-	=36-
!LO:TX:t=P:problem=kreska pseudotaktowa	!	!LO:TX:t=P:problem=kreska pseudotaktowa	!	!	!	!	!LO:TX:t=P:problem=kreska pseudotaktowa	!	!	!
1D/	-ta	1d\	-ta	.	.	.	1a\	-ta	2dd\	in-
!	!	!	!	!LO:TX:t=P:problem=kreska pseudotaktowa	!	!	!	!	!LO:TX:t=P:problem=kreska pseudotaktowa	!
.	.	.	.	2f\	Mar-	.	.	.	2dd\	-ven-
*	*	*	*	*	*	*	*	*ij	*	*
0rE	.	0r	.	2g\	-ga-	.	2.b-\	pre-	2dd\	-ta
.	.	.	.	2e-X\	-ri-	.	.	.	1gg\	an-
.	.	.	.	.	.	.	4b-\	-ti-	.	.
=37-	=37-	=37-	=37-	=37-	=37-	=37-	=37-	=37-	=37-	=37-
!	!	!	!	!LO:TX:t=P:problem=kreska pseudotaktowa	!	!	!	!	!	!
.	.	.	.	1d\	-ta	.	2b-\	-o-	.	.
!	!	!	!	!	!	!	!LO:TX:t=P:problem=kreska pseudotaktowa	!	!LO:TX:t=P:problem=kreska pseudotaktowa	!
.	.	.	.	.	.	.	2a\	-ſa	2ff\	.
*	*	*	*ij	*	*	*	*	*	*	*
1rF	.	2.G/	pre-	1r	.	.	1b-\	Mar-	2gg\	-te
!	!	!	!	!	!	!	!	!	!LO:LB:g=original	!
.	.	.	.	.	.	.	.	.	2ee-X\	V-
!	!	!LO:TX:t=P:problem=kreska pseudotaktowa	!	!	!	!	!	!	!	!
.	.	4G/	-ti-	.	.	.	.	.	.	.
=38-	=38-	=38-	=38-	=38-	=38-	=38-	=38-	=38-	=38-	=38-
!	!	!	!	!	!	!	!	!	!LO:TX:t=P:problem=kreska pseudotaktowa	!
2r	.	2G/	-o-	2.G/	a-	.	2b-\	-ga-	1dd\	-na
!LO:TX:t=P::problem=kreska pseudotaktowa&colon;między nutą a kropką	!	!	!	!	!	!	!	!	!	!
2.d\	a-	1g\	-ſa	.	.	.	2b-\	-ri-	.	.
!	!	!	!	!LO:TX:t=P:problem=kreska pseudotaktowa	!	!	!	!	!	!
.	.	.	.	4G/	-by-	.	.	.	.	.
.	.	.	.	1.d\	-it	.	1a\	-ta	0r	.
*	*	*	*	*	*	*	*	*Xij	*	*
4d\	-by-	.	.	.	.	.	.	.	.	.
!LO:TX:t=P:problem=kreska pseudotaktowa	!	!LO:TX:t=P:problem=kreska pseudotaktowa	!	!	!	!	!	!	!	!
2D/	-it	2f#X\	Mar-	.	.	.	.	.	.	.
=39-	=39-	=39-	=39-	=39-	=39-	=39-	=39-	=39-	=39-	=39-
!	!	!	!	!	!	!	!LO:LB:g=original	!	!	!
(2G\	et	2g\	-ga-	.	.	.	1r	.	.	.
2A\)	.	2e-X\	-ri-	2c/	et	.	.	.	.	.
!	!	!LO:TX:t=P:problem=kreska pseudotaktowa	!	!LO:TX:t=P:problem=kreska pseudotaktowa	!	!	!	!	!	!
2.D/	ven-	1d\	-ta	0f\	ven-	.	2rc	.	2.a/	a-
*	*	*	*Xij	*	*	*	*	*	*	*
.	.	.	.	.	.	.	2.d/	a-	.	.
!LO:TX:t=P:problem=kreska pseudotaktowa	!	!	!	!	!	!	!	!	!LO:TX:t=P:problem=kreska pseudotaktowa	!
4D/	-di-	.	.	.	.	.	.	.	4a/	-by-
=40-	=40-	=40-	=40-	=40-	=40-	=40-	=40-	=40-	=40-	=40-
1D/	-dit	0r	.	.	.	.	.	.	2a/	-it
.	.	.	.	.	.	.	4d/	-by-	.	.
!	!	!	!	!	!	!	!LO:TX:t=P:problem=kreska pseudotaktowa	!	!	!
.	.	.	.	.	.	.	2d/	-it	(1dd\	et
!LO:LB:g=original	!	!	!	!LO:LB:g=original	!	!	!	!	!	!
0rE	.	.	.	1eny\	-di-	.	1g\	et	.	.
!	!	!	!	!	!	!	!	!	!LO:TX:t=P:problem=kreska pseudotaktowa	!
.	.	.	.	.	.	.	.	.	2cc#X\)	.
=41-	=41-	=41-	=41-	=41-	=41-	=41-	=41-	=41-	=41-	=41-
!LO:TX:t=P:problem=kreska pseudotaktowa	!	!	!	!LO:TX:t=P:problem=kreska pseudotaktowa	!	!	!	!	!	!
.	.	1rc	.	0d\	-dit	.	2nyf\	ven-	2dd\	ven-
.	.	.	.	.	.	.	1g\	-di-	2b-y/	-di-
!	!	!	!	!	!	!	!	!	!LO:TX:t=P:problem=kreska pseudotaktowa	!
1rF	.	2rA	.	.	.	.	.	.	1a/	-dit
!	!	!	!	!	!	!	!LO:TX:t=P:problem=kreska pseudotaktowa	!	!	!
.	.	1d\	Ven-	.	.	.	2f\	.	.	.
=42-	=42-	=42-	=42-	=42-	=42-	=42-	=42-	=42-	=42-	=42-
!	!	!	!	!	!	!	!LO:TX:t=P:problem=kreska pseudotaktowa	!	!	!
1.G\	om-	.	.	1B-/	om-	.	1g\	-dit	2r	.
!	!	!LO:TX:t=P:problem=kreska pseudotaktowa	!	!	!	!	!	!	!	!
.	.	2d\	-di-	.	.	.	.	.	1dd\	om-
.	.	1G/	-dit	2B-/	-ni-	.	2r	.	.	.
!	!	!	!	!LO:TX:t=P:problem=kreska pseudotaktowa	!	!	!	!	!	!
2C/	-ni-	.	.	2c/	-a	.	1g\	om-	2eeny\	-ni-
=43-	=43-	=43-	=43-	=43-	=43-	=43-	=43-	=43-	=43-	=43-
!LO:TX:t=P:problem=kreska pseudotaktowa	!	!LO:TX:t=P:problem=kreska pseudotaktowa	!	!	!	!	!	!	!LO:TX:t=P:problem=kreska pseudotaktowa	!
1C/	-a	1rc	.	2.c/	ſu-	.	.	.	0ee\	-a
!	!	!	!	!	!	!	!LO:TX:t=P:problem=kreska pseudotaktowa	!	!	!
.	.	.	.	.	.	.	2g\	-ni-	.	.
.	.	.	.	4B-/	.	.	.	.	.	.
!	!	!	!	!LO:TX:t=P:problem=kreska pseudotaktowa	!	!	!LO:TX:t=P:problem=kreska pseudotaktowa	!	!	!
2r	.	1c\	om-	1A/	-a	.	0g\	-a	.	.
2A\	et	.	.	.	.	.	.	.	.	.
=44-	=44-	=44-	=44-	=44-	=44-	=44-	=44-	=44-	=44-	=44-
2A\	com-	2c/	-ni-	2r	.	.	.	.	00r	.
!LO:TX:t=P:problem=kreska pseudotaktowa	!	!LO:TX:t=P:problem=kreska pseudotaktowa	!	!	!	!	!	!	!	!
2A\	-pa-	2c/	-a	2e\	et	.	.	.	.	.
2B-\	-ra-	1d\	et	2g\	com-	.	00r	.	.	.
!	!	!	!	!LO:TX:t=P:problem=kreska pseudotaktowa	!	!	!	!	!	!
2B-\	-vit	.	.	2f\	-pa-	.	.	.	.	.
=45-	=45-	=45-	=45-	=45-	=45-	=45-	=45-	=45-	=45-	=45-
2B-\	com-	2d\	com-	2g\	-ra-	.	.	.	.	.
!LO:TX:t=P:problem=kreska pseudotaktowa	!	!	!	!LO:TX:t=P:problem=kreska pseudotaktowa	!	!	!	!	!	!
2A\	-pa-	2c/	-pa-	2f\	-vit	.	.	.	.	.
!	!	!LO:LB:g=original	!	!	!	!	!	!	!	!
2.G\	-ra-	2B-/	-ra-	2e\	e-	.	.	.	.	.
.	.	2A/	-vit	1d\	.	.	.	.	.	.
4Fny/	-vit	.	.	.	.	.	.	.	.	.
=46-	=46-	=46-	=46-	=46-	=46-	=46-	=46-	=46-	=46-	=46-
1Eny/	e-	1G/	e-	.	.	.	.	.	0rb	.
!	!	!	!	!LO:TX:t=P:problem=kreska pseudotaktowa	!	!	!	!	!	!
.	.	.	.	2c/	.	.	.	.	.	.
!LO:TX:t=P:problem=kreska pseudotaktowa	!	!LO:TX:t=P:problem=kreska pseudotaktowa	!	!	!	!	!	!	!	!
1D/	-a(m)	1A/	-am	2d\	-am	.	1f#X\	in-	.	.
.	.	.	.	2d\	in-	.	.	.	.	.
=47-	=47-	=47-	=47-	=47-	=47-	=47-	=47-	=47-	=47-	=47-
!	!	!	!	!	!	!	!LO:TX:t=P:problem=# above	!	!	!
00r	.	00r	.	2d\	-ven-	.	2f#X\	-ven-	1a/	in-
!	!	!	!	!LO:TX:t=P:problem=kreska pseudotaktowa	!	!	!LO:TX:t=P:problem=kreska pseudotaktowa	!	!	!
.	.	.	.	2d\	-ta	.	2f#X\	-ta	.	.
.	.	.	.	1.e-X\	U-	.	2g\	an-	2cnyc\	-ven-
!	!	!	!	!	!	!	!	!	!LO:TX:t=P:problem=kreska pseudotaktowa	!
.	.	.	.	.	.	.	2g\	-tê	2b-/	-ta
=48-	=48-	=48-	=48-	=48-	=48-	=48-	=48-	=48-	=48-	=48-
.	.	.	.	.	.	.	2g\	u-	2cc\	u-
!	!	!	!	!	!	!	!LO:TX:t=P:problem=kreska pseudotaktowa	!	!	!
.	.	.	.	2d\	-na	.	2fny\	-na	2b-/	-na
.	.	.	.	2.c/	pre-	.	2.e/	pre-	2a/	pre-
.	.	.	.	.	.	.	.	.	2g/	-ti-
!	!	!	!	!LO:TX:t=P:problem=kreska pseudotaktowa	!	!	!	!	!	!
.	.	.	.	4B-/	-ti-	.	4d/	-ti-	.	.
=49-	=49-	=49-	=49-	=49-	=49-	=49-	=49-	=49-	=49-	=49-
1rF	.	2r	.	1A/	-o-	.	1cny/	-o-	2g/	-o-
!	!	!LO:TX:t=P:problem=kreska pseudotaktowa	!	!	!	!	!	!	!	!
.	.	2c/	Mar-	.	.	.	.	.	2f/	.
!	!	!	!	!LO:TX:t=P:problem=kreska pseudotaktowa	!	!	!LO:TX:t=P:problem=kreska pseudotaktowa	!	!LO:TX:t=P:problem=kreska pseudotaktowa	!
2r	.	2B-/	-ga-	1G/	-ſa	.	1d/	-ſa	0g/	-sa
!LO:TX:t=P:problem=kreska pseudotaktowa	!	!	!	!	!	!	!	!	!	!
2G\	Mar-	2B-/	-ri-	.	.	.	.	.	.	.
=50-	=50-	=50-	=50-	=50-	=50-	=50-	=50-	=50-	=50-	=50-
2C/	-ga-	1c\	-ta	2r	.	.	2.e/	Mar-	.	.
!	!	!	!	!LO:TX:t=P:problem=kreska pseudotaktowa	!	!	!	!	!	!
2C/	-ri-	.	.	2g\	Mar-	.	.	.	.	.
.	.	.	.	.	.	.	4e/	-ga-	.	.
!	!	!LO:TX:t=P:problem=kreska pseudotaktowa	!	!LO:TX:t=P:problem=# above	!	!	!	!	!	!
1D/	-ta	1A/	a-	2f#X\	-ga-	.	2d/	-ri-	1r	.
!	!	!	!	!LO:TX:t=P:problem=# above	!	!	!LO:TX:t=P:problem=kreska pseudotaktowa	!	!	!
.	.	.	.	2f#X\	-ri-	.	2d/	-ta	.	.
=51-	=51-	=51-	=51-	=51-	=51-	=51-	=51-	=51-	=51-	=51-
!	!	!	!	!LO:LB:g=original	!	!	!	!	!	!
2.G\	a-	(2.B-/	-by-	1g\	-ta	.	2d/	a-	1dd\	Mar-
.	.	.	.	.	.	.	2d/	-by-	.	.
!LO:TX:t=P:problem=kreska pseudotaktowa	!	!	!	!	!	!	!	!	!	!
4G\	-by-	4B-/)	.	.	.	.	.	.	.	.
!	!	!	!	!	!	!	!	!	!LO:TX:t=P:problem=# above	!
1A\	-it	2A/	-it	2.eny\	a-	.	2a\	-it	2cc#X\	-ga-
!	!	!	!	!	!	!	!LO:LB:g=original	!	!LO:LB:g=original	!
!	!	!LO:TX:t=P:problem=kreska pseudotaktowa	!	!	!	!	!LO:TX:t=P:problem=kreska pseudotaktowa	!	!LO:TX:t=P:problem=kreska pseudotaktowa	!
.	.	2a\	et	.	.	.	2e/	et	2cc#\	-ri-
.	.	.	.	4e\	-by-	.	.	.	.	.
=52-	=52-	=52-	=52-	=52-	=52-	=52-	=52-	=52-	=52-	=52-
!	!	!	!	!LO:TX:t=P:problem=kreska pseudotaktowa	!	!	!	!	!	!
2r	.	2.a\	ven-	1d\	-it	.	2.f\	ven-	1dd\	-ta
!LO:TX:t=P:problem=kreska pseudotaktowa	!	!	!	!	!	!	!	!	!	!
2D/	et	.	.	.	.	.	.	.	.	.
.	.	4a\	-di-	.	.	.	4f\	-di-	.	.
!	!	!	!	!LO:TX:t=P:problem=kreska pseudotaktowa	!	!	!	!	!	!
2.C#X/	ven-	1a\	-dit	1r	.	.	2e/	-dit	2ee\	a-
.	.	.	.	.	.	.	1a\	.	2ee\	-by-
4C#/	-di-	.	.	.	.	.	.	.	.	.
=53-	=53-	=53-	=53-	=53-	=53-	=53-	=53-	=53-	=53-	=53-
*custos:D	*	*	*	*	*	*	*	*	*	*
!	!	!	!	!	!	!	!	!	!LO:TX:t=P:problem=kreska pseudotaktowa	!
2D/	-dit	2fny\	om-	1d\	et	.	.	.	1a/	-it
!	!	!LO:TX:t=P:problem=kreska pseudotaktowa	!	!	!	!	!LO:TX:t=P:problem=kreska pseudotaktowa	!	!	!
4D/	o-	2f\	-ni-	.	.	.	2d/	om-	.	.
8Cny/L	.	.	.	.	.	.	.	.	.	.
!LO:TX:t=P:problem=kreska pseudotaktowa	!	!	!	!	!	!	!	!	!	!
8BB-/J	.	.	.	.	.	.	.	.	.	.
!	!	!LO:TX:t=P:problem=kreska pseudotaktowa	!	!	!	!	!	!	!	!
4AA/	.	1eny\	-a	2.c#X/	ven-	.	1a\	-ni-	2r	.
4GG/	.	.	.	.	.	.	.	.	.	.
2AA/	-mni-	.	.	.	.	.	.	.	2ee\	et
!	!	!	!	!LO:TX:t=P:problem=kreska pseudotaktowa	!	!	!	!	!	!
!	!	!	!	!LO:TX:t=P:problem=# below	!	!	!	!	!	!
.	.	.	.	4c#X/	-di-	.	.	.	.	.
=54-	=54-	=54-	=54-	=54-	=54-	=54-	=54-	=54-	=54-	=54-
!LO:TX:t=P:problem=kreska pseudotaktowa	!	!	!	!	!	!	!	!	!	!
*	*	*	*	*	*	*	*lig	*	*	*
1D/	-a	2r	.	1d\	-dit	.	1a\	-a	2.ff\	ven-
.	.	1d\	in-	.	.	.	.	.	.	.
!	!	!	!	!	!	!	!	!	!LO:TX:t=P:problem=kreska pseudotaktowa	!
.	.	.	.	.	.	.	.	.	4ff\	-di-
1r	.	.	.	2.G/	om-	.	1b-\	ſu-	2dd\	-dit
.	.	2g\	-ven-	.	.	.	.	.	1dd\	om-
!	!	!	!	!LO:TX:t=P:problem=kreska pseudotaktowa	!	!	!	!	!	!
.	.	.	.	4G/	-ni-	.	.	.	.	.
!	!	!LO:TX:t=P:problem=kreska pseudotaktowa	!	!	!	!	!	!	!	!
*	*	*	*	*	*	*	*Xlig	*	*	*
=55-	=55-	=55-	=55-	=55-	=55-	=55-	=55-	=55-	=55-	=55-
!	!	!	!	!	!	!	!LO:TX:t=P:problem=kreska pseudotaktowa	!	!	!
1.D/	in-	4f\	-ta	2d\	-a	.	1a\	-a	.	.
.	.	4e\	.	.	.	.	.	.	.	.
.	.	4d\	.	1fny\	ſu-	.	.	.	2dd\	-ni-
!	!	!LO:TX:t=P:problem=kreska pseudotaktowa	!	!	!	!	!	!	!	!
.	.	4c\	.	.	.	.	.	.	.	.
!	!	!	!	!	!	!	!	!	!LO:TX:t=P:problem=kreska pseudotaktowa	!
.	.	2B-/	an-	.	.	.	2r	.	1dd\	-a
!LO:TX:t=P:problem=kreska pseudotaktowa	!	!	!	!	!	!	!	!	!	!
2G\	-ven-	2B-/	-te	2d\	-a	.	1g\	in-	.	.
=56-	=56-	=56-	=56-	=56-	=56-	=56-	=56-	=56-	=56-	=56-
2.C/	-ta	0G/	u-	2.e-X\	in-	.	.	.	00r	.
!	!	!	!	!	!	!	!LO:TX:t=P:problem=kreska pseudotaktowa	!	!	!
.	.	.	.	.	.	.	2cc\	-ven-	.	.
!	!	!	!	!LO:TX:t=P:problem=kreska pseudotaktowa	!	!	!	!	!	!
4D/	an-	.	.	4f\	.	.	.	.	.	.
2E-X/	-te	.	.	2g\	-ven-	.	2b-\	-ta	.	.
!LO:TX:t=P:problem=kreska pseudotaktowa	!	!	!	!	!	!	!	!	!	!
2BB-/	.	.	.	2e-\	-ta	.	2b-\	an-	.	.
=57-	=57-	=57-	=57-	=57-	=57-	=57-	=57-	=57-	=57-	=57-
!	!	!	!	!	!	!	!LO:TX:t=P:problem=kreska pseudotaktowa	!	!	!
1C/	U-	2G/	-na	1e-X\	U-	.	1g\	-t(em)	.	.
*	*	*custos:b	*	*	*	*	*	*	*	*
.	.	2c/	Mar-	.	.	.	.	.	.	.
!	!	!LO:N:acc=#	!	!LO:TX:t=P:problem=kreska pseudotaktowa	!	!	!	!	!	!
2GG/	-na	2Bn/	-ga-	1d\	-na	.	2g\	u-	.	.
2G\	Mar-	2B/	-ri-	.	.	.	2d/	-na	.	.
=58-	=58-	=58-	=58-	=58-	=58-	=58-	=58-	=58-	=58-	=58-
!	!	!LO:TX:t=P:problem=kreska pseudotaktowa	!	!	!	!	!	!	!	!
2C/	-ga-	1c\	-ta	2r	.	.	2.e/	pre-	0r	.
!LO:TX:t=P:problem=kreska pseudotaktowa	!	!	!	!	!	!	!	!	!	!
2C/	-ri-	.	.	2g\	Mar-	.	.	.	.	.
!	!	!	!	!	!	!	!LO:TX:t=P:problem=kreska pseudotaktowa	!	!	!
.	.	.	.	.	.	.	4e/	-ti-	.	.
1D/	-ta	1A/	a-	2f#X\	-ga-	.	2d/	-o-	.	.
!	!	!	!	!LO:TX:t=P:problem=kreska pseudotaktowa	!	!	!	!	!	!
!	!	!	!	!LO:TX:t=P:problem=# above	!	!	!	!	!	!
.	.	.	.	2f#X\	-ri-	.	2d/	-sa	.	.
=59-	=59-	=59-	=59-	=59-	=59-	=59-	=59-	=59-	=59-	=59-
2.G\	a-	2.B-y/	.	1g\	-ta	.	2d/	a-	1dd\	Mar-
!	!	!	!	!	!	!	!LO:TX:t=P:problem=kreska pseudotaktowa	!	!	!
.	.	.	.	.	.	.	2d/	-by	.	.
!	!	!LO:TX:t=P:problem=kreska pseudotaktowa	!	!	!	!	!	!	!	!
4G\	-by-	4B-/	-by-	.	.	.	.	.	.	.
!LO:TX:t=P:problem=kreska pseudotaktowa	!	!	!	!	!	!	!	!	!	!
1A\	-it	2A/	-it	2.eny\	a-	.	2a\	-it	2ccny\	-ga-
!	!	!	!	!	!	!	!	!	!LO:TX:t=P:problem=kreska pseudotaktowa	!
.	.	2a\	et	.	.	.	2e/	et	2cc\	-ri-
!	!	!	!	!LO:TX:t=P:problem=kreska pseudotaktowa	!	!	!	!	!	!
.	.	.	.	4e\	-bi-	.	.	.	.	.
=60-	=60-	=60-	=60-	=60-	=60-	=60-	=60-	=60-	=60-	=60-
!	!	!	!	!LO:TX:t=P:problem=kreska pseudotaktowa	!	!	!	!	!	!
2r	.	2.a\	ven-	1d\	-it	.	2.f#X\	ven-	1dd\	-ta
2D/	et	.	.	.	.	.	.	.	.	.
!	!	!LO:TX:t=P:problem=kreska pseudotaktowa	!	!	!	!	!LO:TX:t=P:problem=kreska pseudotaktowa	!	!	!
.	.	4a\	-di-	.	.	.	4f#\	-di-	.	.
!	!	!	!	!LO:TX:t=P:problem=kreska pseudotaktowa	!	!	!	!	!	!
!	!	!	!	!LO:LB:g=original	!	!	!	!	!	!
2C/	ven-	2a\	-dit	1r	.	.	2e/	-dit	2ee\	a-
4C/	-di-	2a\	om-	.	.	.	1a\	om-	2ee\	-by-
!LO:TX:t=P:problem=kreska pseudotaktowa	!	!	!	!	!	!	!	!	!	!
4C/	-dit	.	.	.	.	.	.	.	.	.
=61-	=61-	=61-	=61-	=61-	=61-	=61-	=61-	=61-	=61-	=61-
!	!	!	!	!	!	!	!	!	!LO:TX:t=P:problem=kreska pseudotaktowa	!
2.D/	om-	2f\	-ni-	1d\	et	.	.	.	1a/	-it
!	!	!LO:TX:t=P:problem=kreska pseudotaktowa	!	!	!	!	!LO:TX:t=P:problem=kreska pseudotaktowa	!	!	!
.	.	2f\	-a	.	.	.	2d/	-ni-	.	.
4D/	-ni-	.	.	.	.	.	.	.	.	.
!LO:LB:g=original	!	!	!	!	!	!	!	!	!	!
2AA/	-a	2e\	ſu-	2.c#X/	ven-	.	1a\	-a	2r	.
2AA/	ſu-	2e\	-a	.	.	.	.	.	2ee\	et
!	!	!	!	!LO:TX:t=P:problem=kreska pseudotaktowa	!	!	!	!	!	!
.	.	.	.	4c#/	-di-	.	.	.	.	.
=62-	=62-	=62-	=62-	=62-	=62-	=62-	=62-	=62-	=62-	=62-
!LO:TX:t=P:problem=kreska pseudotaktowa	!	!	!	!	!	!	!	!	!	!
*	*	*	*	*	*	*	*lig	*	*	*
1D/	-a	2r	.	1d\	-dit	.	1a\	ſu-	2.ff\	ven-
!	!	!LO:TX:t=P:problem=kreska pseudotaktowa	!	!	!	!	!	!	!	!
.	.	2d\	com-	.	.	.	.	.	.	.
!	!	!	!	!	!	!	!	!	!LO:TX:t=P:problem=kreska pseudotaktowa	!
.	.	.	.	.	.	.	.	.	4ff\	-di-
1rF	.	2d\	-pa-	2.G/	om-	.	1b-\	.	1dd\,<	-dit
.	.	2g\	-ra-	.	.	.	.	.	.	.
.	.	.	.	4G/	-ni-	.	.	.	.	.
!	!	!	!	!LO:TX:t=P:problem=kreska pseudotaktowa	!	!	!	!	!	!
*	*	*	*	*	*	*	*Xlig	*	*	*
=63-	=63-	=63-	=63-	=63-	=63-	=63-	=63-	=63-	=63-	=63-
!	!	!	!	!	!	!	!LO:TX:t=P:problem=kreska pseudotaktowa	!	!	!
1D/	et	4f\	.	2d\	-a	.	1a\	-a	2dd\	om-
.	.	4e\	.	.	.	.	.	.	.	.
!	!	!	!	!	!	!	!	!	!LO:TX:t=P:problem=kreska pseudotaktowa	!
.	.	4d\	.	1fny\	ſu-	.	.	.	2dd\	-ni-
!	!	!LO:TX:t=P:problem=kreska pseudotaktowa	!	!	!	!	!	!	!	!
.	.	4c\	.	.	.	.	.	.	.	.
!	!	!	!	!	!	!	!	!	!LO:LB:g=original	!
2D/	com-	2B-/	vit	.	.	.	2r	.	2dd\	-a
!LO:TX:t=P:problem=kreska pseudotaktowa	!	!	!	!LO:TX:t=P:problem=kreska pseudotaktowa	!	!	!	!	!LO:TX:t=P:problem=kreska pseudotaktowa	!
2G\	-pa-	2B-/	e-	2d\	-a	.	2g\	et	2dd\	Su-
=64-	=64-	=64-	=64-	=64-	=64-	=64-	=64-	=64-	=64-	=64-
!	!	!	!	!	!	!	!	!	!LO:TX:t=P:problem=kreska pseudotaktowa	!
2.C/	-ra-	[0G/;;l	-a(m)	2.e-X\	et	.	2g\	com-	1cc\	-a
*	*	*	*	*	*	*	*custos:b	*	*	*
.	.	.	.	.	.	.	2cc\	-pa-	.	.
4D/	.	.	.	4f\	.	.	.	.	.	.
!	!	!	!	!	!	!	!LO:LB:g=original	!	!	!
2E-X/	.	.	.	2g\	com-	.	2b-\	-ra-	2g/	et
!	!	!	!	!LO:TX:t=P:problem=kreska pseudotaktowa	!	!	!	!	!	!
2BB-/	-vit	.	.	2d\	-pa-	.	2b-\	-vit	2g/	com-
=65-	=65-	=65-	=65-	=65-	=65-	=65-	=65-	=65-	=65-	=65-
0C/	e-	0G/_	.	2.eny\	-ra-	.	0g\	e-	2dd\	-pa-
.	.	.	.	.	.	.	.	.	2cc\	-ra-
.	.	.	.	4d\	-vit	.	.	.	.	.
.	.	.	.	1cny\	e-	.	.	.	2cc\	-vit
.	.	.	.	.	.	.	.	.	1.ee-X\	e-
=66-	=66-	=66-	=66-	=66-	=66-	=66-	=66-	=66-	=66-	=66-
!	!	!	!	!LO:N:acc=#	!	!	!	!	!	!
0G\;;	-am	0G/]	.	0Bn/;;	-am.	.	0g\;;	-am.	.	.
!	!	!	!	!	!	!	!	!	!LO:N:vis=0	!
.	.	.	.	.	.	.	.	.	1dd\;;	-a(m).
==	==	==	==	==	==	==	==	==	==	==
*-	*-	*-	*-	*-	*-	*-	*-	*-	*-	*-
!!!system-decoration: [(s1,s2,s3,s4,s5)]
!!!RDF**kern: l = terminal long!!!RDF**kern: > = above
!!!RDF**kern: < = below
!!!EED: Andrzej Borzym
!!!EST: 2021-04-05
!!!AIN: 1 alto 1 empty 2 tenor 1 vox
!!!ENC: Anastazja Marusiak
!!!END: 2021-03-13
